X: 124
T: Shoes & Stockings
M: 2/4
L: 1/16
K: G
uD2 |: "G" G2G2 B2B2 | "C" cBc2 "D" d2(D2 | "G" G2)G2 B2B2 | "D" (ABA)(G FD)EF |
      "G" G2G2 B2B2 | "C" cBc2 "D" d4 | (ded)(c "D7" B)G(AF) |1 "G" G4 (G2D2) :|2 "G" G4 (G2d2) |
|: "G" g2g2 a2a2 | b2b2 d4 | "Am" c2c2 "G" B2B2 | "D" (AB)c2 d2(g2 |
"G" g2)g2 a2a2 | b2b2 d4 | "Am" (ced)(c "G" BA)vG(uB |1 "D" AGF2) "G" G2d2 :|2 "D" AGF2) "G" uG2uG2 |

